imagens/Fundo-branco-verde.svg

<svg xmlns="http://www.w3.org/2000/svg" xmlns:xlink="http://www.w3.org/1999/xlink" width="1366" zoomAndPan="magnify" viewBox="0 0 1024.5 983.999988" height="1312" preserveAspectRatio="xMidYMid meet" version="1.0"><defs><filter x="0%" y="0%" width="100%" height="100%" id="db0b20dc9f"><feColorMatrix values="0 0 0 0 1 0 0 0 0 1 0 0 0 0 1 0 0 0 1 0" color-interpolation-filters="sRGB"/></filter><clipPath id="080542759c"><path d="M 0 545 L 1024 545 L 1024 983.574219 L 0 983.574219 Z M 0 545 " clip-rule="nonzero"/></clipPath><clipPath id="29b7b3bcaa"><path d="M 357 509 L 1024 509 L 1024 983.574219 L 357 983.574219 Z M 357 509 " clip-rule="nonzero"/></clipPath><clipPath id="b78a3e4a54"><path d="M 0 668 L 1024 668 L 1024 983.574219 L 0 983.574219 Z M 0 668 " clip-rule="nonzero"/></clipPath><mask id="40e7195571"><g filter="url(#db0b20dc9f)"><rect x="-102.45" width="1229.4" fill="#000000" y="-98.399999" height="1180.799986" fill-opacity="0.42"/></g></mask><clipPath id="ea2547796e"><path d="M 0 0.3125 L 1024 0.3125 L 1024 315.574219 L 0 315.574219 Z M 0 0.3125 " clip-rule="nonzero"/></clipPath><clipPath id="3470d0558d"><rect x="0" width="1024" y="0" height="316"/></clipPath><clipPath id="cc33d85799"><path d="M 199 724 L 1024 724 L 1024 983.574219 L 199 983.574219 Z M 199 724 " clip-rule="nonzero"/></clipPath><mask id="b3587af562"><g filter="url(#db0b20dc9f)"><rect x="-102.45" width="1229.4" fill="#000000" y="-98.399999" height="1180.799986" fill-opacity="0.42"/></g></mask><clipPath id="af794e152a"><path d="M 1 0.445312 L 825 0.445312 L 825 259.574219 L 1 259.574219 Z M 1 0.445312 " clip-rule="nonzero"/></clipPath><clipPath id="bb605b3060"><rect x="0" width="825" y="0" height="260"/></clipPath></defs><g clip-path="url(#080542759c)"><path fill="#dae7d5" d="M 0.0820312 619.753906 C 366.984375 403.355469 715.292969 722.875 826.851562 807.445312 C 938.40625 892.011719 1023.917969 920.679688 1023.917969 920.679688 L 1023.917969 983.75 L 0.0820312 983.75 Z M 0.0820312 619.753906 " fill-opacity="1" fill-rule="nonzero"/></g><g clip-path="url(#29b7b3bcaa)"><path fill="#588947" d="M 357.6875 983.75 C 357.6875 806.667969 601.484375 777.957031 752.070312 777.957031 C 902.65625 777.957031 1023.917969 532.359375 1023.917969 509.058594 L 1023.917969 983.75 Z M 357.6875 983.75 " fill-opacity="1" fill-rule="nonzero"/></g><g clip-path="url(#b78a3e4a54)"><g mask="url(#40e7195571)"><g transform="matrix(1, 0, 0, 1, 0, 668)"><g clip-path="url(#3470d0558d)"><g clip-path="url(#ea2547796e)"><path fill="#2a4a23" d="M 0.0820312 56.800781 C 156.441406 240.597656 288.230469 16.953125 465.109375 1.347656 C 641.945312 -14.253906 1023.917969 202.472656 1023.917969 202.472656 L 1023.917969 315.75 L 0.0820312 315.75 Z M 0.0820312 56.800781 " fill-opacity="1" fill-rule="nonzero"/></g></g></g></g></g><g clip-path="url(#cc33d85799)"><g mask="url(#b3587af562)"><g transform="matrix(1, 0, 0, 1, 199, 724)"><g clip-path="url(#bb605b3060)"><g clip-path="url(#af794e152a)"><path fill="#2a4a23" d="M 18.871094 259.75 C 18.871094 259.75 -45.671875 112.765625 72.644531 22.425781 C 190.957031 -67.917969 504.664062 154.375 615.808594 148.96875 C 726.957031 143.605469 824.917969 0.800781 824.917969 0.800781 L 824.917969 259.75 Z M 18.871094 259.75 " fill-opacity="1" fill-rule="nonzero"/></g></g></g></g></g></svg>

<svg xmlns="http://www.w3.org/2000/svg" width="1366" height="1312" version="1.0" viewBox="0 0 1024.5 984"><defs><clipPath id="b"><path d="M0 545h1024v438.574H0Zm0 0"/></clipPath><clipPath id="c"><path d="M357 509h667v474.574H357Zm0 0"/></clipPath><clipPath id="d"><path d="M0 668h1024v315.574H0Zm0 0"/></clipPath><clipPath id="g"><path d="M0 .313h1024v315.261H0Zm0 0"/></clipPath><clipPath id="f"><path d="M0 0h1024v316H0z"/></clipPath><clipPath id="h"><path d="M199 724h825v259.574H199Zm0 0"/></clipPath><clipPath id="k"><path d="M1 .445h824v259.13H1Zm0 0"/></clipPath><clipPath id="j"><path d="M0 0h825v260H0z"/></clipPath><mask id="e"><g filter="url(#a)"><path fill-opacity=".42" d="M-102.45-98.4h1229.4v1180.8h-1229.4z"/></g></mask><mask id="i"><g filter="url(#a)"><path fill-opacity=".42" d="M-102.45-98.4h1229.4v1180.8h-1229.4z"/></g></mask><filter id="a" width="100%" height="100%" x="0%" y="0%"><feColorMatrix color-interpolation-filters="sRGB" values="0 0 0 0 1 0 0 0 0 1 0 0 0 0 1 0 0 0 1 0"/></filter></defs><g clip-path="url(#b)"><path fill="#dae7d5" d="M.082 619.754c366.902-216.399 715.211 103.121 826.77 187.691 111.554 84.567 197.066 113.235 197.066 113.235v63.07H.082Zm0 0"/></g><g clip-path="url(#c)"><path fill="#588947" d="M357.688 983.75c0-177.082 243.796-205.793 394.382-205.793s271.848-245.598 271.848-268.898V983.75Zm0 0"/></g><g clip-path="url(#d)" mask="url(#e)"><g clip-path="url(#f)" transform="translate(0 668)"><g clip-path="url(#g)"><path fill="#2a4a23" d="M.082 56.8C156.442 240.599 288.23 16.954 465.109 1.349c176.836-15.602 558.809 201.125 558.809 201.125V315.75H.082Zm0 0"/></g></g></g><g clip-path="url(#h)" mask="url(#i)"><g clip-path="url(#j)" transform="translate(199 724)"><g clip-path="url(#k)"><path fill="#2a4a23" d="M18.871 259.75S-45.672 112.766 72.645 22.426c118.312-90.344 432.02 131.949 543.164 126.543C726.957 143.605 824.918.8 824.918.8V259.75Zm0 0"/></g></g></g></svg>
